X: 6537
T: Catfish, The
R: jig
M: 6/8
K: Gmajor
e2f||"G"gdB GAB|"C"cdc "Am"E2E|"D7"DFA cAF|"G"GAB def|
"G"gdB GAB|"C"cdc "Am"E2E|"D7"DFA cBA|"G"G3:|
|:d^c=c|"G"Bcd gdB|"C"cAc "Am"a2g|"D7"faf def|"G"gfe "D7"d^c=c|
"G"Bcd gdB|"C"cAc "Am"a2g|"D7"faf def|1 "G"1g3:|2 "G"g3||

